static/images/hero/rev-border.svg

<svg width="207" height="144" viewBox="0 0 207 144" fill="none" xmlns="http://www.w3.org/2000/svg">
<path d="M206.719 59.9306C206.72 64.1513 206.711 68.1081 206.7 73.1054C206.7 73.1081 206.7 73.1107 206.7 73.1134C206.699 73.8274 206.697 74.5631 206.696 75.3234C206.683 81.4458 206.667 89.4009 206.659 101.396C206.649 114.65 206.614 125.173 206.581 131.599C206.574 132.797 206.571 134.038 206.568 137.166C206.566 138.734 206.565 140.722 206.563 143.358L206.563 143.701L206.219 143.701C205.404 143.701 204.527 143.7 203.581 143.699C201.452 143.698 198.974 143.696 196.072 143.694C186.469 143.687 171.418 143.69 157.549 143.692C149.132 143.693 141.148 143.694 135.084 143.693C126.216 143.692 117.659 143.685 108.356 143.678C99.8372 143.672 90.692 143.665 80.1108 143.662C71.992 143.659 64.1042 143.633 56.0883 143.605C55.0681 143.601 54.0437 143.598 53.0182 143.594C45.9446 143.569 38.7136 143.543 30.8942 143.528C19.5203 143.506 10.0214 143.51 0.21936 143.518L0.0590116 143.518L0.0587812 143.358C0.0568605 141.148 0.0546748 138.922 0.0524494 136.657C0.0477185 131.84 0.0428003 126.84 0.0398758 121.418C0.0352509 112.843 0.0361848 100.516 0.0374953 88.1375C0.037607 87.0832 0.0376862 86.0273 0.0378005 84.9743C0.0378005 84.9689 0.0378005 84.9636 0.0378005 84.9583C0.0390313 73.6277 0.0402392 62.5071 0.0375564 54.3483C0.0332928 41.3836 0.023218 36.5057 0.0147896 32.4373C0.0116214 30.908 0.00866266 29.4921 0.00636654 27.8043C-0.00190203 21.7253 -0.000366777 12.5487 0.0011784 3.24653C0.0011784 3.21103 0.0011784 3.17554 0.0011784 3.14003C0.00143482 1.59627 0.0296706 0.350295 0.0642295 0.357548C0.0987915 0.365005 0.126621 1.62277 0.126365 3.16666C0.125547 8.09396 0.124755 12.902 0.125327 17.2069C0.155022 17.4301 0.177501 18.5893 0.17727 19.9787C0.176698 23.457 0.19907 34.1102 0.235621 50.783C0.241034 49.641 0.246301 48.6844 0.251308 47.8461C0.257185 46.8622 0.262238 46.1084 0.266567 45.4604C0.275589 44.1096 0.281543 43.2108 0.285915 41.6155C0.290886 37.9204 0.29192 32.113 0.292935 26.0016C0.2932 24.4585 0.32138 23.2123 0.355925 23.2192C0.390479 23.2266 0.418304 24.4849 0.41806 26.0283C0.41806 26.0584 0.41806 26.0886 0.41806 26.1188C0.417055 32.1716 0.416035 38.1656 0.410736 42.0255C0.409388 43.0076 0.407792 43.8534 0.406341 44.4885C0.405182 44.9962 0.403608 45.63 0.40158 45.9823C0.401311 46.029 0.400766 46.1182 0.399932 46.2246C0.399912 46.2263 0.399892 46.2281 0.399871 46.2299C0.399411 46.2893 0.397078 46.593 0.391998 46.9169C0.390971 46.9822 0.38868 47.1245 0.384978 47.2896C0.384694 47.3322 0.384409 47.3748 0.384124 47.4174C0.38017 48.0114 0.37614 48.6174 0.372222 49.2733C0.356924 51.8344 0.337644 55.8909 0.317227 64.3386C0.29845 72.1083 0.290031 85.243 0.289883 101.632C0.292471 100.525 0.294981 99.415 0.29739 98.3062C0.303447 95.5158 0.30897 92.7125 0.314237 89.9082C0.316248 88.834 0.318218 87.7742 0.320157 86.6944C0.323292 84.9561 0.326369 83.2128 0.329374 81.4702C0.331407 80.2927 0.333406 79.1127 0.335416 77.9342C0.335416 77.9315 0.335416 77.9289 0.335416 77.9262C0.338207 76.2903 0.341014 74.6504 0.343901 72.9976C0.344975 72.4191 0.346006 71.8477 0.347013 71.2802C0.351021 69.0215 0.354912 66.8026 0.362456 64.2481C0.363705 63.9375 0.365321 63.5999 0.366667 63.3481C0.368086 63.0774 0.369531 62.8169 0.371001 62.5706C0.372298 62.3534 0.373618 62.1462 0.374846 61.9476C0.375009 61.9209 0.375172 61.8943 0.375335 61.8677C0.376709 61.6454 0.377979 61.4329 0.37918 61.2287C0.380379 61.0248 0.381534 60.8284 0.382537 60.6349C0.382537 60.6331 0.382537 60.6313 0.382537 60.6296C0.383565 60.4274 0.384338 60.274 0.385222 60.0597C0.386331 59.7908 0.387184 59.5596 0.38803 59.2796C0.388853 59.0087 0.389586 58.7262 0.390228 58.4408C0.390868 58.1556 0.391428 57.8651 0.391937 57.5702C0.392446 57.2751 0.392919 56.9751 0.39334 56.6728C0.393761 56.3708 0.394129 56.0647 0.3945 55.7569C0.394871 55.449 0.395243 55.1377 0.395599 54.8249C0.396424 54.1049 0.403358 53.4146 0.415131 52.9078C0.426904 52.4012 0.442474 52.1191 0.458589 52.1224C0.474706 52.1258 0.490195 52.4149 0.501803 52.9265C0.513405 53.4382 0.520137 54.1313 0.520724 54.8516C0.520882 55.0477 0.52106 55.2449 0.521213 55.4427C0.521304 55.5601 0.52137 55.6787 0.521457 55.7968C0.52169 56.1144 0.521951 56.4352 0.522128 56.7581C0.522305 57.0806 0.522421 57.4061 0.522494 57.7352C0.522567 58.0653 0.522591 58.3998 0.522494 58.7391C0.522397 59.0775 0.52219 59.4235 0.521823 59.7748C0.521477 60.1177 0.520871 60.5088 0.520114 60.8585C0.519582 61.1142 0.518674 61.4292 0.517856 61.692C0.517 61.9661 0.516044 62.236 0.515048 62.4961C0.51405 62.7568 0.512992 63.0089 0.511996 63.2496C0.511894 63.2754 0.511793 63.3011 0.511691 63.3268C0.51081 63.5396 0.50995 63.7451 0.509188 63.9393C0.508336 64.1563 0.507611 64.3618 0.506991 64.557C0.506295 64.772 0.506019 64.9026 0.505709 65.0629C0.503698 67.1814 0.504112 69.8003 0.504489 72.2973C0.504536 72.6111 0.504569 72.9232 0.504611 73.2319C0.504905 74.8721 0.505275 76.5088 0.505648 78.1445C0.50592 79.3333 0.5062 80.5235 0.506442 81.7152C0.5068 83.4687 0.507085 85.2276 0.507296 86.9846C0.507419 88.0759 0.507499 89.1471 0.50754 90.2357C0.507661 93.0782 0.507492 95.93 0.506747 98.7855C0.506 101.637 0.504696 104.507 0.502474 107.378C0.50026 110.238 0.496948 113.21 0.491915 116.079C0.488153 118.189 0.481595 120.352 0.474825 122.353C0.471178 123.428 0.467479 124.481 0.463777 125.519C0.463757 125.522 0.463736 125.526 0.463716 125.529C0.460467 126.44 0.45725 127.339 0.454194 128.232C0.447613 130.146 0.441746 132.026 0.436799 133.906C0.43185 135.783 0.427813 137.652 0.424713 139.535C0.422636 140.8 0.420947 142.079 0.41965 143.358L0.21936 143.157C0.829355 143.158 1.43912 143.158 2.04689 143.159C3.93777 143.16 5.79413 143.161 7.74497 143.161C10.31 143.161 12.857 143.159 15.472 143.158C18.0678 143.157 20.6846 143.155 23.3082 143.153C24.2253 143.153 25.1441 143.152 26.0641 143.152C26.0676 143.152 26.0712 143.152 26.0747 143.152C27.7765 143.15 29.4824 143.149 31.1897 143.148C33.8256 143.147 36.4687 143.145 39.1218 143.144C41.7743 143.142 44.4432 143.141 47.1257 143.141C49.8087 143.141 52.5641 143.141 55.3321 143.143C57.8014 143.145 60.2902 143.147 62.7236 143.149C63.3662 143.15 64.0088 143.151 64.6514 143.151C67.7005 143.154 70.6523 143.156 73.5713 143.157C76.4882 143.157 79.4031 143.156 82.3448 143.153C85.2774 143.15 88.2471 143.146 91.2407 143.141C94.2473 143.137 97.2151 143.131 100.243 143.125C103.248 143.119 106.267 143.112 109.323 143.105C111.022 143.101 112.829 143.097 114.536 143.094C116.26 143.091 117.974 143.089 119.665 143.086C120.351 143.085 121.034 143.084 121.712 143.083C122.701 143.082 123.682 143.08 124.646 143.079C126.275 143.076 127.864 143.074 129.407 143.07C130.95 143.067 132.447 143.064 133.894 143.059C135.391 143.055 136.625 143.05 138.101 143.043C141.695 143.03 143.923 143.026 146.398 143.022C146.885 143.021 147.383 143.02 147.902 143.019C150.87 143.014 153.835 143.01 156.761 143.007C159.715 143.004 162.623 143.003 165.569 143.001C168.486 143 171.424 143 174.35 143.001C177.272 143.001 180.189 143.002 183.113 143.004C186.035 143.006 189.018 143.009 191.881 143.012C193.536 143.014 195.294 143.017 196.927 143.019C198.105 143.021 199.266 143.023 200.405 143.025C200.869 143.026 201.332 143.027 201.789 143.028C203.309 143.03 204.788 143.033 206.219 143.034L205.896 143.358C205.896 143.303 205.896 143.249 205.897 143.195C205.898 141.713 205.9 140.279 205.9 138.876C205.901 137.47 205.9 136.095 205.899 134.719C205.898 133.293 205.896 132.109 205.893 130.595C205.891 129.609 205.889 128.643 205.886 127.679C205.883 126.237 205.88 124.805 205.877 123.363C205.873 121.923 205.87 120.501 205.866 119.071C205.865 118.611 205.864 118.126 205.862 117.665C205.859 116.241 205.855 114.833 205.851 113.426C205.847 112.022 205.843 110.631 205.838 109.246C205.834 107.855 205.829 106.487 205.824 105.092C205.815 102.721 205.811 100.452 205.808 98.4646C205.806 96.4536 205.804 94.5744 205.803 92.7452C205.803 92.4026 205.802 92.06 205.802 91.7174C205.801 90.2419 205.8 88.7908 205.799 87.3613C205.797 85.5995 205.795 83.8698 205.793 82.1345C205.791 80.4143 205.788 78.677 205.785 76.9663C205.782 75.2394 205.779 73.5881 205.775 71.8087C205.771 70.0488 205.766 68.2614 205.76 66.3023C205.755 64.3611 205.749 62.3238 205.744 60.2607C205.739 58.1998 205.734 56.106 205.731 54.0274C205.728 51.9446 205.725 49.8548 205.723 47.7942C205.721 45.7225 205.72 43.663 205.72 41.6141C205.719 39.5699 205.719 37.4583 205.72 35.482C205.721 32.2817 205.722 29.096 205.724 25.9044C205.725 22.7305 205.727 19.5466 205.729 16.3694C205.731 13.198 205.732 10.0229 205.734 6.85306C205.736 4.68719 205.737 2.52157 205.738 0.357513L206.219 0.838474C205.215 0.837838 204.21 0.837198 203.207 0.836556C202.506 0.836108 201.806 0.835661 201.106 0.835213C198.64 0.833635 196.175 0.832054 193.719 0.830513C193.703 0.830493 193.686 0.830472 193.669 0.830452C190.509 0.828492 187.406 0.826586 184.272 0.824959C183.122 0.824377 182.017 0.823829 180.893 0.823372C179.769 0.822917 178.665 0.822547 177.552 0.822273C176.437 0.822002 175.328 0.82185 174.237 0.821846C173.133 0.821851 172.058 0.821992 170.972 0.822395C169.977 0.822748 168.99 0.823383 167.91 0.824043C167.812 0.824104 167.713 0.824165 167.615 0.824226C166.434 0.824953 165.09 0.825414 163.842 0.825081C160.534 0.824095 157.311 0.82363 154.03 0.823677C150.747 0.823722 147.471 0.824261 144.167 0.82502C142.877 0.825312 141.581 0.825672 140.285 0.825996C138.269 0.826501 136.244 0.827007 134.214 0.8274C130.874 0.828054 127.527 0.828351 124.157 0.82795C120.801 0.827549 117.423 0.826421 114.061 0.824471C110.701 0.822528 107.311 0.819776 103.966 0.816292C100.24 0.812393 96.5345 0.808088 92.8126 0.803596C89.0968 0.799098 85.3788 0.794388 81.6773 0.789557C77.9623 0.784721 74.2568 0.779754 70.5501 0.774664C66.8411 0.769573 63.1346 0.764362 59.4255 0.759039C57.2056 0.755852 54.9864 0.752606 52.7662 0.749334C51.5915 0.752271 50.4653 0.755149 49.3819 0.757879C41.3769 0.778051 35.5889 0.7926 27.9528 0.802619C27.2215 0.804137 26.6265 0.806298 25.9026 0.808906C25.7645 0.809404 25.6179 0.809902 25.4685 0.810432C24.5225 0.81379 23.436 0.817304 21.9245 0.819527C18.9094 0.82396 14.2878 0.822996 8.31568 0.793769C6.80706 0.786386 5.84709 0.753059 6.17224 0.719304C6.40082 0.695628 7.20208 0.678034 8.17989 0.672183C6.37336 0.668168 4.5717 0.663966 2.77468 0.659793C2.0574 0.658121 1.38401 0.650354 0.905496 0.638003C0.427256 0.625648 0.182547 0.609779 0.223855 0.59369C0.265176 0.577597 0.590716 0.562502 1.12916 0.551514C1.66741 0.540537 2.37364 0.534591 3.0942 0.534851C5.00574 0.535567 6.9108 0.536293 8.81626 0.536804C10.7233 0.537322 12.6213 0.537624 14.525 0.53778C16.4281 0.537938 18.3306 0.537918 20.2391 0.53778C22.1401 0.537636 24.0449 0.537404 25.9532 0.537048C27.8735 0.5367 29.7577 0.536213 31.6726 0.535705C32.8198 0.535395 33.9809 0.535088 35.1207 0.534728C35.5455 0.534605 35.9601 0.534436 36.3748 0.534301C36.7138 0.534191 37.0545 0.534102 37.4053 0.533996C41.0948 0.53277 44.8197 0.531397 48.5112 0.529907C52.2202 0.528424 55.9254 0.526856 59.6305 0.525207C63.3376 0.523558 67.0416 0.521802 70.7471 0.520019C74.4509 0.518234 78.1524 0.516389 81.8611 0.514464C85.556 0.512532 89.266 0.510557 92.967 0.508422C95.8298 0.506772 98.6684 0.504999 101.512 0.503111C102.631 0.499883 103.739 0.496832 104.832 0.493895C108.014 0.485345 111.201 0.474126 114.34 0.46301C108.753 0.468537 104.264 0.477169 99.9911 0.485411C99.4182 0.486516 98.8491 0.487625 98.2817 0.488707C92.4898 0.499747 86.8946 0.509093 79.3688 0.507018C57.9648 0.501114 45.554 0.496806 37.8206 0.488768C30.0887 0.48073 26.7665 0.468814 23.6659 0.445126C19.2848 0.411651 10.8288 0.39261 6.57963 0.391902C5.03606 0.391646 3.79015 0.363404 3.79715 0.328851C3.8046 0.294289 5.06241 0.266459 6.60626 0.266715C11.093 0.267462 20.2432 0.286815 25.4579 0.326654C27.7805 0.3444 30.4514 0.355849 38.0656 0.363764C45.6806 0.37168 57.9769 0.375916 79.4221 0.381831C86.677 0.383832 92.0615 0.374931 97.7918 0.364008C98.3537 0.362937 98.9196 0.361814 99.4905 0.360712C99.4941 0.360712 99.4976 0.360712 99.5012 0.360712C104.765 0.350557 110.496 0.339488 118.225 0.334588C136.039 0.323296 160.001 0.301405 165.69 0.289055C166.806 0.286631 167.885 0.283909 169.023 0.281059C173.392 0.270119 178.667 0.256923 190.554 0.24816C193.153 0.246244 196.199 0.24513 199.521 0.24462C201.8 0.236924 204.048 0.229482 206.219 0.222784L206.354 0.222591L206.354 0.357513C206.362 2.9384 206.369 5.41091 206.374 7.69713C206.382 11.3304 206.397 14.6807 206.413 17.9271C206.418 18.8617 206.422 19.8024 206.427 20.7415C206.439 23.0066 206.451 25.2727 206.46 27.4807C206.467 29.241 206.475 31.0842 206.485 33.0324C206.518 40.1289 206.558 48.6331 206.558 59.7149C206.559 71.4623 206.552 81.5199 206.545 90.1944C206.553 83.824 206.562 78.9062 206.571 74.8095C206.573 74.0368 206.574 73.2963 206.576 72.5835C206.587 67.5486 206.595 63.8882 206.594 59.9652C206.593 41.2272 206.582 34.1991 206.551 26.2692C206.543 24.1814 206.533 21.8782 206.521 19.3969C206.498 14.4376 206.471 8.76499 206.456 2.67002C206.454 1.91097 206.452 1.1399 206.45 0.357513L206.45 0.12626L206.219 0.12659C201.15 0.140261 195.606 0.158416 189.779 0.17748C189.776 0.17748 189.773 0.17748 189.771 0.17748C188.456 0.18178 187.126 0.186126 185.785 0.19048C177.605 0.217032 169.003 0.24373 160.628 0.260551C159.732 0.26235 158.659 0.264831 157.427 0.267692C150.317 0.284208 137.835 0.313201 122.592 0.294609C119.244 0.290525 115.765 0.281872 111.795 0.271965C110.586 0.268947 109.33 0.265776 108.019 0.262626C102.36 0.249025 95.4842 0.234576 86.329 0.225882C78.7734 0.218706 69.5651 0.215266 60.0033 0.21166C55.2934 0.209884 50.4977 0.208039 45.7713 0.20574C31.4947 0.198794 18.4097 0.187778 5.34948 0.176747C5.34682 0.176747 5.34415 0.176747 5.34149 0.176747C3.79858 0.175444 2.59 0.146342 2.64421 0.111804C2.69899 0.0772832 3.99367 0.0503286 5.53586 0.0516215C18.6038 0.0626588 31.6489 0.0736919 45.8779 0.080614C50.5323 0.0828783 55.2905 0.0847034 59.982 0.0864736C69.5903 0.0900989 78.9266 0.0935749 86.5527 0.100817C95.8636 0.10966 102.865 0.124384 108.602 0.138172C109.984 0.141493 111.283 0.14474 112.516 0.147816C116.442 0.157608 119.706 0.165793 122.882 0.169667C137.641 0.187669 149.652 0.159828 156.788 0.143299C158.054 0.140367 159.167 0.137816 160.114 0.135913C168.324 0.119422 176.796 0.0931633 184.967 0.0666366C186.293 0.0623329 187.612 0.0580404 188.921 0.0537578C188.924 0.0537374 188.927 0.0537171 188.929 0.0536968C195.01 0.0338023 200.877 0.0146099 206.219 0.000508636L206.576 -2.08616e-06L206.576 0.357513C206.578 0.924012 206.579 1.48462 206.581 2.03897C206.595 7.90834 206.619 13.0271 206.642 17.8152C206.654 20.3845 206.665 22.859 206.675 25.3026C206.707 33.7153 206.718 41.1323 206.719 59.9306ZM10.973 0.678226C14.6863 0.693911 17.7117 0.697218 19.9648 0.696171C18.0514 0.692608 16.1425 0.68887 14.2321 0.685001C13.1448 0.6828 12.0588 0.680543 10.973 0.678226ZM199.977 0.369685C199.375 0.371721 198.769 0.37378 198.161 0.375849C199.84 0.374869 201.519 0.373957 203.196 0.373042C204.204 0.372492 205.212 0.371957 206.219 0.37143L206.205 0.357513C206.206 1.40812 206.207 2.45856 206.207 3.50876C206.207 2.44632 206.207 1.39457 206.207 0.357513L206.219 0.369507C204.063 0.369375 201.97 0.36941 199.977 0.369685ZM206.433 59.7415C206.433 49.2906 206.396 41.4807 206.363 34.4382C206.354 32.4102 206.344 30.4435 206.336 28.4978C206.333 27.691 206.33 26.8848 206.326 26.0722C206.324 30.8051 206.322 35.1557 206.32 38.7171C206.315 49.3446 206.304 55.393 206.295 60.7081C206.292 62.2458 206.289 63.7238 206.287 65.2319C206.291 66.4797 206.296 67.7754 206.299 69.0848C206.304 70.918 206.309 72.8997 206.314 74.7856C206.318 76.6785 206.322 78.6022 206.325 80.4916C206.328 82.3966 206.331 84.2841 206.333 86.1631C206.335 87.9311 206.337 89.693 206.339 91.3979C206.339 91.4955 206.339 91.5932 206.339 91.6908C206.341 93.4927 206.343 95.2458 206.345 96.8564C206.348 98.496 206.351 99.859 206.356 101.069C206.362 102.579 206.367 104.129 206.372 105.662C206.377 107.196 206.382 108.724 206.387 110.247C206.391 111.773 206.395 113.285 206.399 114.8C206.401 115.29 206.402 115.803 206.403 116.288C206.404 116.512 206.404 116.736 206.405 116.959C206.405 113.995 206.406 110.917 206.407 107.736C206.409 103.14 206.413 98.2343 206.417 92.8224C206.425 83.5901 206.434 72.8861 206.433 59.7415ZM187.682 143.554C188.971 143.554 190.858 143.553 193.293 143.552C193.868 143.551 194.475 143.551 195.111 143.551C195.096 143.551 195.081 143.551 195.066 143.551C193.489 143.547 192.034 143.545 190.462 143.542C187.661 143.538 184.94 143.534 182.192 143.53C179.433 143.527 176.682 143.524 173.927 143.522C171.168 143.52 168.402 143.518 165.659 143.517C162.89 143.516 160.161 143.516 157.405 143.516C156.527 143.517 155.647 143.517 154.767 143.517C156.732 143.52 158.772 143.523 160.928 143.526C162.649 143.528 164.445 143.53 166.333 143.533C167.056 143.534 167.93 143.535 168.951 143.537C172.994 143.545 179.339 143.556 187.682 143.554ZM132.784 143.552C132.144 143.552 131.508 143.553 130.88 143.554C129.09 143.556 127.347 143.557 125.637 143.557C124.436 143.558 123.249 143.558 122.08 143.559C121.586 143.559 121.093 143.559 120.605 143.559C119.786 143.56 118.974 143.56 118.168 143.56C123.823 143.564 129.35 143.567 135.111 143.568C135.187 143.568 135.263 143.568 135.34 143.568C134.468 143.562 133.616 143.557 132.784 143.552Z" fill="#B8B8B8"/>
</svg>

<svg xmlns="http://www.w3.org/2000/svg" width="207" height="144" fill="none" viewBox="0 0 207 144"><path fill="#b8b8b8" d="M206.719 59.93c.001 4.221-.008 8.178-.019 13.175v.008l-.004 2.21c-.013 6.123-.029 14.078-.037 26.073-.01 13.254-.045 23.777-.078 30.203-.007 1.198-.01 2.439-.013 5.567l-.005 6.192v.343h-.344l-2.638-.002-7.509-.005c-9.603-.007-24.654-.004-38.523-.002-8.417.001-16.401.002-22.465.001-8.868-.001-17.425-.008-26.728-.015-8.519-.006-17.664-.013-28.245-.016-8.119-.003-16.007-.029-24.023-.057l-3.07-.011c-7.073-.025-14.304-.051-22.124-.066-11.374-.022-20.873-.018-30.675-.01H.06v-.16l-.007-6.701c-.004-4.817-.01-9.817-.012-15.239-.005-8.575-.004-20.902-.003-33.28v-3.18c.002-11.33.003-22.45 0-30.61C.034 41.384.024 36.506.016 32.438l-.009-4.634C-.002 21.725 0 12.55.001 3.247V3.14C.001 1.596.03.35.064.358.1.365.127 1.623.126 3.167v14.04c.029.223.052 1.382.051 2.772 0 3.478.022 14.131.059 30.804l.015-2.937.016-2.386c.009-1.35.015-2.25.019-3.845.005-3.695.006-9.502.007-15.613 0-1.543.028-2.79.063-2.783.034.008.062 1.266.062 2.81v.09a15732 15732 0 0 1-.012 18.37L.4 46.225v.005a56 56 0 0 1-.015 1.06v.127l-.013 1.856C.357 51.834.338 55.891.317 64.34.298 72.109.29 85.243.29 101.632A20141 20141 0 0 0 .33 81.47l.005-3.536v-.008l.012-6.646c.004-2.258.008-4.477.015-7.032l.009-1.677.004-.623v-.08l.004-.64.004-.593v-.005a539 539 0 0 0 .009-3.06l.001-.897.002-.916v-.932c.001-.72.008-1.41.02-1.917s.027-.789.044-.786.031.293.043.804.018 1.205.019 1.926v.945l.001.961-.002 4.1-.005 1.638-.003.754v.077l-.003.612-.003 1.124C.504 67.18.504 69.8.504 72.297v.935l.002 4.912v20.641a16795 16795 0 0 1-.014 17.294 3970 3970 0 0 1-.028 9.44v.01l-.01 2.703a7015 7015 0 0 0-.034 15.126l-.2-.201 1.827.002 5.698.002 7.727-.003 7.836-.005 2.756-.001h.01l5.116-.004 7.932-.004q3.979-.003 8.004-.003c2.683 0 5.438 0 8.206.002l7.392.006 1.927.002 8.92.006a8585 8585 0 0 0 17.67-.016c3.006-.004 5.974-.01 9.002-.016l9.08-.02 5.213-.011 5.129-.008 2.047-.003 2.934-.004 4.761-.009a3002 3002 0 0 0 8.694-.027 3682 3682 0 0 1 9.801-.024l8.859-.012 8.808-.006h8.781a12803 12803 0 0 1 17.531.011l5.046.007 4.862.009 4.43.006-.323.324.001-.163.003-4.319c.001-1.406 0-2.781-.001-4.157a3028 3028 0 0 0-.013-7.04l-.009-4.316-.011-4.292-.004-1.406a5737 5737 0 0 0-.024-8.419l-.014-4.154a2880 2880 0 0 1-.016-6.627l-.005-5.72-.001-1.028-.003-4.356-.006-5.227a8774 8774 0 0 0-.033-15.832l-.016-6.041a6358 6358 0 0 1-.021-12.467l-.003-6.18v-6.132a30466 30466 0 0 1 .009-19.113l.005-9.516.004-6.495.481.48-3.012-.001-2.101-.002-7.387-.004h-.05L174.237.82l-3.265.001-3.062.002h-.295l-3.773.001a31183 31183 0 0 0-19.675 0l-3.882.001-16.128.002A21964 21964 0 0 1 92.813.804 117744 117744 0 0 1 52.766.749l-3.384.009c-8.005.02-13.793.035-21.43.045-.73.001-1.326.003-2.05.006l-.434.001c-.945.004-2.032.007-3.544.01C18.91.824 14.289.823 8.316.794 6.807.786 5.847.754 6.172.719 6.401.696 7.202.678 8.18.672L2.775.66A90 90 0 0 1 .905.638C.427.626.183.61.224.594S.59.563 1.129.552 2.374.535 3.094.535l5.722.002A30056 30056 0 0 0 31.673.536L35.12.535h1.254l1.03-.001A156169 156169 0 0 0 81.86.514l19.651-.01 3.32-.01c3.182-.009 6.369-.02 9.508-.031-5.587.006-10.076.014-14.349.022l-1.71.004c-5.791.01-11.386.02-18.912.018C57.965.501 45.554.497 37.82.489A2097 2097 0 0 1 23.666.445C19.285.412 10.829.393 6.58.392 5.036.392 3.79.363 3.797.329 3.805.294 5.062.266 6.607.267c4.486 0 13.636.02 18.85.06 2.323.017 4.994.029 12.609.037s19.91.012 41.356.018c7.255.002 12.64-.007 18.37-.018L99.49.361h.011c5.264-.01 10.995-.022 18.724-.026C136.039.323 160.001.3 165.69.289l3.333-.008c4.369-.01 9.644-.024 21.531-.033 2.599-.002 5.645-.003 8.967-.003 2.279-.008 4.527-.016 6.698-.022h.135v.135c.008 2.58.015 5.053.02 7.34.008 3.632.023 6.983.039 10.23l.014 2.813c.012 2.266.024 4.532.033 6.74.007 1.76.015 3.603.025 5.551.033 7.097.073 15.601.073 26.683.001 11.747-.006 21.805-.013 30.48.008-6.371.017-11.289.026-15.385l.005-2.227c.011-5.034.019-8.695.018-12.618-.001-18.738-.012-25.766-.043-33.696-.008-2.088-.018-4.39-.03-6.872-.023-4.96-.05-10.632-.065-16.727L206.45.358V.126h-.231c-5.069.014-10.613.032-16.44.051h-.008q-1.974.008-3.986.013a20533 20533 0 0 1-28.358.078c-7.11.016-19.592.045-34.835.027-3.348-.004-6.827-.013-10.797-.023l-3.776-.01C102.36.25 95.484.236 86.329.227 78.773.219 69.565.216 60.003.212L45.771.206A92222 92222 0 0 1 5.35.176h-.008C3.8.177 2.59.147 2.644.113 2.7.077 3.994.05 5.536.052c13.068.01 26.113.022 40.342.029l14.104.005c9.608.004 18.945.008 26.57.015 9.312.009 16.313.023 22.05.037l3.914.01c3.926.01 7.19.018 10.366.022 14.759.018 26.77-.01 33.906-.027l3.326-.007a20296 20296 0 0 0 28.807-.082h.008c6.081-.02 11.948-.04 17.29-.053l.357-.001v.358l.005 1.681c.014 5.87.038 10.988.061 15.776l.033 7.488c.032 8.412.043 15.83.044 34.628M10.973.679c3.713.016 6.739.02 8.992.018zM199.977.37l-1.816.006 5.035-.003 3.023-.002-.014-.013.002 3.15V.359l.012.012zm6.456 59.372c0-10.451-.037-18.261-.07-25.304l-.027-5.94-.01-2.426-.006 12.645c-.005 10.628-.016 16.676-.025 21.991l-.008 4.524c.004 1.248.009 2.543.012 3.853l.015 5.7.011 5.707.008 5.671.006 5.235v.293l.006 5.165c.003 1.64.006 3.003.011 4.213l.016 4.593.015 4.585.012 4.553.004 1.488.002.671.002-9.223c.002-4.596.006-9.502.01-14.914.008-9.232.017-19.936.016-33.08m-18.751 83.812 5.611-.002 1.818-.001h-.045l-4.604-.009-8.27-.012-8.265-.008-8.268-.005-8.254-.001-2.638.001 6.161.009 5.405.007 2.618.004c4.043.008 10.388.019 18.731.017m-54.898-.002-1.904.002-5.243.003-3.557.002h-1.475l-2.437.001c5.655.004 11.182.007 16.943.008h.229z"/></svg>
